static/img/kroki/2b9a312aa6b565244c35ea79d839f9f2.svg

<?xml version="1.0" encoding="us-ascii" standalone="no"?><svg xmlns="http://www.w3.org/2000/svg" xmlns:xlink="http://www.w3.org/1999/xlink" contentStyleType="text/css" height="252px" preserveAspectRatio="none" style="width:325px;height:252px;" version="1.1" viewBox="0 0 325 252" width="325px" zoomAndPan="magnify"><defs/><g><!--class aws_backup_protected_resource--><g id="elem_aws_backup_protected_resource"><rect codeLine="23" fill="#3D176E" height="39.7891" id="aws_backup_protected_resource" rx="2.5" ry="2.5" style="stroke:#000D19;stroke-width:0.5;" width="311" x="7" y="7"/><ellipse cx="22" cy="26.8945" fill="#ADD1B2" rx="11" ry="11" style="stroke:#181818;stroke-width:1.0;"/><path d="M24.9688,32.5352 Q24.3906,32.832 23.75,32.9727 Q23.1094,33.1289 22.4063,33.1289 Q19.9063,33.1289 18.5781,31.4883 Q17.2656,29.832 17.2656,26.707 Q17.2656,23.582 18.5781,21.9258 Q19.9063,20.2695 22.4063,20.2695 Q23.1094,20.2695 23.75,20.4258 Q24.4063,20.582 24.9688,20.8789 L24.9688,23.5977 Q24.3438,23.0195 23.75,22.7539 Q23.1563,22.4727 22.5313,22.4727 Q21.1875,22.4727 20.5,23.5508 Q19.8125,24.6133 19.8125,26.707 Q19.8125,28.8008 20.5,29.8789 Q21.1875,30.9414 22.5313,30.9414 Q23.1563,30.9414 23.75,30.6758 Q24.3438,30.3945 24.9688,29.8164 L24.9688,32.5352 Z " fill="#000000"/><text fill="#D9B8FF" font-family="Helvetica" font-size="17" lengthAdjust="spacing" textLength="269" x="41" y="32.7798">aws_backup_protected_resource</text></g><!--class aws_dynamodb_global_table--><g id="elem_aws_dynamodb_global_table"><rect codeLine="26" fill="#3D176E" height="39.7891" id="aws_dynamodb_global_table" rx="2.5" ry="2.5" style="stroke:#000D19;stroke-width:0.5;" width="282" x="21.5" y="106.79"/><ellipse cx="36.5" cy="126.6845" fill="#ADD1B2" rx="11" ry="11" style="stroke:#181818;stroke-width:1.0;"/><path d="M39.4688,132.3252 Q38.8906,132.622 38.25,132.7627 Q37.6094,132.9189 36.9063,132.9189 Q34.4063,132.9189 33.0781,131.2783 Q31.7656,129.622 31.7656,126.497 Q31.7656,123.372 33.0781,121.7158 Q34.4063,120.0595 36.9063,120.0595 Q37.6094,120.0595 38.25,120.2158 Q38.9063,120.372 39.4688,120.6689 L39.4688,123.3877 Q38.8438,122.8095 38.25,122.5439 Q37.6563,122.2627 37.0313,122.2627 Q35.6875,122.2627 35,123.3408 Q34.3125,124.4033 34.3125,126.497 Q34.3125,128.5908 35,129.6689 Q35.6875,130.7314 37.0313,130.7314 Q37.6563,130.7314 38.25,130.4658 Q38.8438,130.1845 39.4688,129.6064 L39.4688,132.3252 Z " fill="#000000"/><text fill="#D9B8FF" font-family="Helvetica" font-size="17" lengthAdjust="spacing" textLength="240" x="55.5" y="132.5698">aws_dynamodb_global_table</text></g><!--class aws_kms_key--><g id="elem_aws_kms_key"><rect codeLine="29" fill="#3D176E" height="39.7891" id="aws_kms_key" rx="2.5" ry="2.5" style="stroke:#000D19;stroke-width:0.5;" width="158" x="83.5" y="206.58"/><ellipse cx="98.5" cy="226.4745" fill="#ADD1B2" rx="11" ry="11" style="stroke:#181818;stroke-width:1.0;"/><path d="M101.4688,232.1152 Q100.8906,232.412 100.25,232.5527 Q99.6094,232.7089 98.9063,232.7089 Q96.4063,232.7089 95.0781,231.0683 Q93.7656,229.412 93.7656,226.287 Q93.7656,223.162 95.0781,221.5058 Q96.4063,219.8495 98.9063,219.8495 Q99.6094,219.8495 100.25,220.0058 Q100.9063,220.162 101.4688,220.4589 L101.4688,223.1777 Q100.8438,222.5995 100.25,222.3339 Q99.6563,222.0527 99.0313,222.0527 Q97.6875,222.0527 97,223.1308 Q96.3125,224.1933 96.3125,226.287 Q96.3125,228.3808 97,229.4589 Q97.6875,230.5214 99.0313,230.5214 Q99.6563,230.5214 100.25,230.2558 Q100.8438,229.9745 101.4688,229.3964 L101.4688,232.1152 Z " fill="#000000"/><text fill="#D9B8FF" font-family="Helvetica" font-size="17" lengthAdjust="spacing" textLength="116" x="117.5" y="232.3598">aws_kms_key</text></g><!--link aws_backup_protected_resource to aws_dynamodb_global_table--><g id="link_aws_backup_protected_resource_aws_dynamodb_global_table"><path codeLine="32" d="M162.5,47.22 C162.5,64.36 162.5,83.27 162.5,100.41 " fill="none" id="aws_backup_protected_resource-to-aws_dynamodb_global_table" style="stroke:#1A83AF;stroke-width:2.0;"/><polygon fill="#1A83AF" points="162.5,106.41,166.5,97.41,162.5,101.41,158.5,97.41,162.5,106.41" style="stroke:#1A83AF;stroke-width:2.0;"/></g><!--link aws_dynamodb_global_table to aws_kms_key--><g id="link_aws_dynamodb_global_table_aws_kms_key"><path codeLine="33" d="M162.5,147.01 C162.5,164.15 162.5,183.06 162.5,200.2 " fill="none" id="aws_dynamodb_global_table-to-aws_kms_key" style="stroke:#1A83AF;stroke-width:2.0;"/><polygon fill="#1A83AF" points="162.5,206.2,166.5,197.2,162.5,201.2,158.5,197.2,162.5,206.2" style="stroke:#1A83AF;stroke-width:2.0;"/></g><!--SRC=[XP3BIiD058RtUOg1hWkDHTjkX5WekYbYtOc4ayoPTiXSmfc99OhlRcghZ1dJBcPp_e__CZl9aQ6kVSiqwWB99QwIfWO2pJ8YkrzQPOcDX00ndVN5bJN-8h06ZUmUrHjwMKAVUDx9iZBe7BiAf3iegotPnl2ZlISmhfFG-81QAd0kyvvaqNWCol15CHUYJ_PDHrEUpcummYnnf1CocKnukkWZ5wFExlubDl8TMHf-sjfwZ6f64T_KsPO78YWP3VtH1pi-0kVIRDbrS7iwTYA3zEU-sG6t-mCjGBamndaajBwjSHcjmiMSYzc_yCCGd9I7hsEmTtdH8KsTrzGjAJtodD3PXafa7qdo6O2yDQ0jB_AjiWMet4EX8gZItSFsU3vlFtuPfTbycgrUnxV30SbmT6Hm2a- -0000]--></g></svg>

<svg xmlns="http://www.w3.org/2000/svg" width="325" height="252" viewBox="0 0 325 252"><rect width="311" height="39.789" x="7" y="7" fill="#3D176E" rx="2.5" ry="2.5" style="stroke:#000d19;stroke-width:.5"/><circle cx="22" cy="26.895" r="11" fill="#ADD1B2" style="stroke:#181818;stroke-width:1"/><path d="M24.969 32.535q-.578.297-1.219.438-.64.156-1.344.156-2.5 0-3.828-1.64-1.312-1.657-1.312-4.782t1.312-4.781q1.328-1.656 3.828-1.656.703 0 1.344.156.656.156 1.219.453v2.719q-.625-.578-1.219-.844-.594-.281-1.219-.281-1.343 0-2.031 1.078-.687 1.062-.687 3.156t.687 3.172q.688 1.062 2.031 1.062.625 0 1.219-.265.594-.281 1.219-.86z"/><text x="41" y="32.78" fill="#D9B8FF" font-family="Helvetica" font-size="17" textLength="269">aws_backup_protected_resource</text><rect width="282" height="39.789" x="21.5" y="106.79" fill="#3D176E" rx="2.5" ry="2.5" style="stroke:#000d19;stroke-width:.5"/><circle cx="36.5" cy="126.684" r="11" fill="#ADD1B2" style="stroke:#181818;stroke-width:1"/><path d="M39.469 132.325q-.578.297-1.219.438-.64.156-1.344.156-2.5 0-3.828-1.64-1.312-1.657-1.312-4.782t1.312-4.781q1.328-1.656 3.828-1.656.703 0 1.344.156.656.156 1.219.453v2.719q-.625-.579-1.219-.844-.594-.281-1.219-.281-1.343 0-2.031 1.078-.687 1.062-.687 3.156t.687 3.172q.688 1.062 2.031 1.062.625 0 1.219-.265.594-.281 1.219-.86z"/><text x="55.5" y="132.57" fill="#D9B8FF" font-family="Helvetica" font-size="17" textLength="240">aws_dynamodb_global_table</text><rect width="158" height="39.789" x="83.5" y="206.58" fill="#3D176E" rx="2.5" ry="2.5" style="stroke:#000d19;stroke-width:.5"/><circle cx="98.5" cy="226.475" r="11" fill="#ADD1B2" style="stroke:#181818;stroke-width:1"/><path d="M101.469 232.115q-.578.297-1.219.438-.64.156-1.344.156-2.5 0-3.828-1.64-1.312-1.657-1.312-4.782t1.312-4.781q1.328-1.656 3.828-1.656.703 0 1.344.156.656.156 1.219.453v2.719q-.625-.578-1.219-.844-.594-.281-1.219-.281-1.344 0-2.031 1.078-.687 1.062-.687 3.156t.687 3.172q.688 1.062 2.031 1.062.625 0 1.219-.265.594-.281 1.219-.86z"/><text x="117.5" y="232.36" fill="#D9B8FF" font-family="Helvetica" font-size="17" textLength="116">aws_kms_key</text><path fill="none" d="M162.5 47.22v53.19" style="stroke:#1a83af;stroke-width:2"/><path fill="#1A83AF" d="m162.5 106.41 4-9-4 4-4-4z" style="stroke:#1a83af;stroke-width:2"/><path fill="none" d="M162.5 147.01v53.19" style="stroke:#1a83af;stroke-width:2"/><path fill="#1A83AF" d="m162.5 206.2 4-9-4 4-4-4z" style="stroke:#1a83af;stroke-width:2"/></svg>
